X:18889
T:Wohlan, die Zeit ist kommen...
R:
O:
S:source
B:Frau Nachtigall (Straßburg - 1928)
Z:<anamnese@caramail.com> -- http://anamnese.fr.st
N:p.96
M:C
L:1/4
Q:1/4=150
K:C
C/E/ | GcAc | (G>F) EG | FFDF | EAG C/E/ |
       GcAc | (Ge)ee | edAB | c2 z C/ E/ |
       GcAc | G3/2 G/4 G/ F/ E G/ G/ | FFDF | EAG C/E/ |
       GcAc | (Ge)ee | edAB | c2 z |]
W:Wohlan, die Zeit ist kommen, mein Pferd, daß muß gesattelt sein.
W:Ich hab mirs vorgenommen, geritten muß es sein.
W:Fidirula rula....


